packages/core/src/svg/icon-location.svg

<?xml version="1.0" encoding="UTF-8"?>
<svg xmlns="http://www.w3.org/2000/svg" width="100%" height="100%" viewBox="0 0 23 23">
  <path d="M11.6911445,6.57252031e-13 C13.9380141,6.57252031e-13 16.1856662,0.848347826 17.8995793,2.54582609 C21.3274054,5.94 21.0957532,11.2296522 17.8995793,14.8382609 C14.618101,18.5446957 12.868188,20.8565217 11.6911445,23.1793043 C10.5203619,20.8565217 8.7657532,18.5446957 5.48505755,14.8382609 C2.28888364,11.2296522 2.05644886,5.94 5.48505755,2.54582609 C7.19897059,0.848347826 9.44584016,6.57252031e-13 11.6911445,6.57252031e-13 Z M11.6911445,1.73895652 C9.80818799,1.73895652 8.03792712,2.46443478 6.70827494,3.78078261 C5.39505755,5.08069565 4.71418799,6.74295652 4.73923146,8.58913043 C4.76349233,10.4126087 5.49053581,12.222 6.78653581,13.6862609 C9.03966625,16.2305217 10.568101,18.1166087 11.6927097,19.7773043 C12.8220141,18.111913 14.348101,16.2266087 16.598101,13.6862609 C17.894101,12.222 18.6211445,10.4126087 18.6454054,8.58913043 C18.6688836,6.74295652 17.9880141,5.08069565 16.6763619,3.78078261 C15.3451445,2.46443478 13.5756662,1.73895652 11.6911445,1.73895652 Z M11.6922402,5.21538261 C13.6127619,5.21538261 15.168588,6.7719913 15.168588,8.69251304 C15.168588,10.6122522 13.6127619,12.1688609 11.6922402,12.1688609 C9.77171842,12.1688609 8.21510973,10.6122522 8.21510973,8.69251304 C8.21510973,6.7719913 9.77171842,5.21538261 11.6922402,5.21538261 Z M11.6922402,6.95355652 C10.7327619,6.95355652 9.95328364,7.73381739 9.95328364,8.69251304 C9.95328364,9.65042609 10.7327619,10.430687 11.6922402,10.430687 C12.6509358,10.430687 13.4304141,9.65042609 13.4304141,8.69251304 C13.4304141,7.73381739 12.6509358,6.95355652 11.6922402,6.95355652 Z" />
</svg>

<?xml version="1.0" encoding="UTF-8"?><svg viewBox="0 0 23 23" xmlns="http://www.w3.org/2000/svg"><path d="m11.691 6.5725e-13c2.2469 0 4.4945 0.84835 6.2084 2.5458 3.4278 3.3942 3.1962 8.6838 0 12.292-3.2815 3.7064-5.0314 6.0183-6.2084 8.341-1.1708-2.3228-2.9254-4.6346-6.2061-8.341-3.1962-3.6086-3.4286-8.8983 0-12.292 1.7139-1.6975 3.9608-2.5458 6.2061-2.5458zm0 1.739c-1.883 0-3.6532 0.72548-4.9829 2.0418-1.3132 1.2999-1.9941 2.9622-1.969 4.8083 0.024261 1.8235 0.7513 3.6329 2.0473 5.0971 2.2531 2.5443 3.7816 4.4303 4.9062 6.091 1.1293-1.6654 2.6554-3.5507 4.9054-6.091 1.296-1.4643 2.023-3.2737 2.0473-5.0971 0.023478-1.8462-0.65739-3.5084-1.969-4.8083-1.3312-1.3163-3.1007-2.0418-4.9852-2.0418zm0.0010957 3.4764c1.9205 0 3.4763 1.5566 3.4763 3.4771 0 1.9197-1.5558 3.4763-3.4763 3.4763-1.9205 0-3.4771-1.5566-3.4771-3.4763 0-1.9205 1.5566-3.4771 3.4771-3.4771zm0 1.7382c-0.95948 0-1.739 0.78026-1.739 1.739 0 0.95791 0.77948 1.7382 1.739 1.7382 0.9587 0 1.7382-0.78026 1.7382-1.7382 0-0.9587-0.77948-1.739-1.7382-1.739z"/></svg>
